X: 1587
T: Polonäs ur Andreas Dahlgrens notbok nr 86
B: http://www.smus.se/earkiv/fmk/browselarge.php?lang=sw&katalogid=Ma+7&bildnr=00031
B: Andreas Dahlgrens notbok
O: Fågelvik, Tryserum, Småland
S: efter Andreas Dahlgren
R: Slängpolska
Z: Nils L
M: 3/4
L: 1/16
K: Gm
(B2A2) (G2A2) (B2c2) | d2=e2 f4d4 | g4 g2ab a2g2 | ^fgaf d8 |
g2bg d2gd B2dB | TA4 G8 :: g4 d4>f4 | e2d2 d2c2 c2B2 |
g4 d4>f4 | (e2d2) (d2c2) (c2B2) | g2bg d2gd B2dB | TA4 G8 :|
(:musicend:)
(:music:)
